app/assets/images/payment_icons/cash_app_pay.svg

<svg width="38" height="24" viewBox="0 0 38 24" fill="none" xmlns="http://www.w3.org/2000/svg">
<rect width="38" height="24" rx="2" fill="white"/>
<rect x="0.5" y="0.5" width="37" height="23" rx="1.5" stroke="black" stroke-opacity="0.07"/>
<path fill-rule="evenodd" clip-rule="evenodd" d="M21.5682 2.99805C23.3755 2.99805 24.2789 2.99805 25.2518 3.3056C26.314 3.69216 27.1506 4.5288 27.5372 5.59097C27.8447 6.56363 27.8447 7.46752 27.8447 9.27482V14.7242C27.8447 16.5317 27.8447 17.4351 27.5372 18.4081C27.1506 19.4702 26.314 20.3069 25.2518 20.6934C24.2789 21.001 23.3755 21.001 21.5682 21.001H16.1186C14.311 21.001 13.4074 21.001 12.4347 20.6934C11.3725 20.3069 10.5359 19.4702 10.1493 18.4081C9.8418 17.4351 9.8418 16.5317 9.8418 14.7242V9.27482C9.8418 7.46752 9.8418 6.56363 10.1493 5.59097C10.5359 4.5288 11.3725 3.69216 12.4347 3.3056C13.4074 2.99805 14.311 2.99805 16.1186 2.99805H21.5682Z" fill="#00D64F"/>
<path fill-rule="evenodd" clip-rule="evenodd" d="M19.2145 9.08006C20.0849 9.08006 20.9191 9.4325 21.4642 9.91629C21.6021 10.0387 21.8085 10.0379 21.9378 9.90682L22.5864 9.24905C22.7232 9.11022 22.7182 8.88291 22.5704 8.75604C22.1352 8.38192 21.551 8.01403 20.8319 7.77849L21.0353 6.80991C21.0794 6.59879 20.9186 6.40039 20.7028 6.40039H19.4496C19.2893 6.40039 19.1507 6.51255 19.1173 6.66933L18.9341 7.53073C17.2681 7.61398 15.8561 8.44523 15.8561 10.1508C15.8561 11.6274 17.0244 12.2602 18.2574 12.6982C19.4256 13.1361 20.042 13.2986 20.042 13.915C20.042 14.5478 19.4256 14.921 18.5169 14.921C17.6884 14.921 16.8205 14.6475 16.147 13.9835C16.0149 13.8532 15.8036 13.8522 15.6715 13.9825L14.9746 14.67C14.8382 14.8043 14.8395 15.0251 14.9768 15.1582C15.5202 15.6856 16.2081 16.0675 16.9932 16.2814L16.802 17.1786C16.7574 17.389 16.9167 17.5874 17.1321 17.5892L18.3873 17.5986C18.5488 17.5999 18.6891 17.487 18.722 17.3287L18.9032 16.466C20.8979 16.3429 22.1188 15.2587 22.1188 13.6717C22.1188 12.2116 20.9022 11.595 19.4256 11.092C18.5819 10.7834 17.8516 10.5728 17.8516 9.94022C17.8516 9.32383 18.5333 9.08006 19.2145 9.08006" fill="white"/>
</svg>

<svg width="38" height="24" viewBox="0 0 38 24" fill="none" xmlns="http://www.w3.org/2000/svg"><rect width="38" height="24" rx="2" fill="#fff"/><rect x=".5" y=".5" width="37" height="23" rx="1.5" stroke="#000" stroke-opacity=".07"/><path fill-rule="evenodd" clip-rule="evenodd" d="M21.568 2.998c1.807 0 2.71 0 3.684.308a3.823 3.823 0 012.285 2.285c.308.973.308 1.877.308 3.684v5.45c0 1.807 0 2.71-.308 3.683a3.823 3.823 0 01-2.285 2.285c-.973.308-1.877.308-3.684.308h-5.45c-1.807 0-2.71 0-3.683-.308a3.823 3.823 0 01-2.286-2.285c-.307-.973-.307-1.876-.307-3.684v-5.45c0-1.806 0-2.71.307-3.683a3.823 3.823 0 012.286-2.285c.972-.308 1.876-.308 3.684-.308h5.45z" fill="#00D64F"/><path fill-rule="evenodd" clip-rule="evenodd" d="M19.215 9.08c.87 0 1.704.352 2.25.836a.342.342 0 00.473-.01l.648-.657a.338.338 0 00-.016-.493 5.127 5.127 0 00-1.738-.978l.203-.968a.34.34 0 00-.332-.41H19.45a.34.34 0 00-.333.27l-.183.86c-1.666.084-3.078.915-3.078 2.62 0 1.477 1.168 2.11 2.401 2.548 1.169.438 1.785.6 1.785 1.217 0 .633-.616 1.006-1.525 1.006-.829 0-1.697-.273-2.37-.938a.338.338 0 00-.475 0l-.697.687a.342.342 0 00.002.488c.543.528 1.231.91 2.016 1.123l-.191.898a.34.34 0 00.33.41l1.255.01a.34.34 0 00.335-.27l.181-.863c1.995-.123 3.216-1.207 3.216-2.794 0-1.46-1.217-2.077-2.693-2.58-.844-.309-1.574-.52-1.574-1.152 0-.616.681-.86 1.363-.86" fill="#fff"/></svg>
